X:2202
T:The Golden Glove 
C:Traditional
O:Isle of Man
Z:Clague collection
B:Kiaull Vannin #202 
L:1/4
M:4/4 
Q:100 
K:D
D|F2 D F|A2 F A|d2 f d|c3 A|d2 fd|c2 d d|B A F G|A3 A| 
BA B c|d ed B|A2 AF|G FED|d2 c e|d2F A|A2G E|D3|| 

